X: 36
T:Harrow on the Hill,bass part. JNu.21
M:2/4
Q:50
S:James Nuttall MS,c1830,Rossendale,East Lancs.
R:Country-dance
O:England
A:East Lancashire
Z:vmp.Chris Partington
K:D
"secundo,read as bass clef"Bfdf|Bfdf|cfef|FfFf|!
Bfef|BfBf|cfce|BfB2:|!
|:cfef|Bfdf|Ec^Ec|FcF2|!
cfef|Bfdf|FfFf|BfB2:|]
